src/assets/aboutUs/mission.svg

<svg fill="none" height="96" viewBox="0 0 103 96" width="103" xmlns="http://www.w3.org/2000/svg" xmlns:xlink="http://www.w3.org/1999/xlink"><clipPath id="a"><path d="m1.98438 6.59866h100v83h-100z"/></clipPath><g clip-path="url(#a)"><path d="m43.9864 8.90834c14.2475-.22307 26.8973 6.82206 34.2399 17.60346l2.0267-1.1931c-7.7646-11.4573-21.1872-18.95025-36.3031-18.71536-23.516.36502-42.33611 19.27816-41.96099 42.16076.37685 22.8775 19.81179 41.1958 43.32429 40.8308 23.5126-.3667 42.3379-19.2798 41.961-42.1591-.1128-6.8541-1.9467-13.2925-5.0745-18.9469l-2.0301 1.1931c2.9193 5.3147 4.6317 11.3593 4.7358 17.791.3561 21.6085-17.4238 39.4722-39.6304 39.8152-22.2031.3481-40.56128-16.9528-40.91729-38.5596-.35428-21.6118 17.42389-39.47553 39.62869-39.82026z" fill="#000080"/><path d="m44.1749 20.3357c9.9389-.1555 18.7663 4.6607 23.9971 12.0826l8.1553-4.7925c-6.9362-10.1409-18.8549-16.7534-32.3018-16.5439-21.0135.3262-37.77219 17.1658-37.43354 37.6099.33691 20.4425 17.64094 36.7532 38.64924 36.4236 21.0083-.3278 37.767-17.1657 37.4318-37.6099-.0972-6.0379-1.6897-11.7108-4.4076-16.7061l-8.1814 4.8077c1.8843 3.6299 3.0062 7.7075 3.0774 12.0471.2518 15.3323-12.3146 27.9624-28.0748 28.2075-15.7566.245-28.7329-11.9863-28.9882-27.3186-.2483-15.3322 12.3198-27.9607 28.0747-28.2074z" fill="#000080"/><path d="m44.3259 29.5894c6.4326-.0997 12.1583 2.9269 15.6785 7.6281l8.1658-4.7992c-5.2308-7.4219-14.0582-12.2381-23.9971-12.0826-15.7549.245-28.3231 12.8735-28.0748 28.2074.2553 15.3323 13.2333 27.5636 28.9883 27.3186 15.7584-.2451 28.3265-12.8769 28.0747-28.2075-.0712-4.3396-1.1931-8.4156-3.0773-12.0471l-8.1588 4.7959c1.0628 2.2576 1.6845 4.757 1.7262 7.3999.1667 10.2204-8.2109 18.6428-18.7194 18.805-10.5015.1639-19.1553-7.9914-19.3237-18.2118-.1685-10.2238 8.2126-18.6427 18.7141-18.8067z" fill="#fff"/><path d="m44.4799 38.8449c2.9227-.0456 5.5555 1.1981 7.3304 3.1871l8.1952-4.8145c-3.5202-4.7012-9.2476-7.7278-15.6785-7.6281-10.5015.164-18.8826 8.5812-18.7142 18.8067.1668 10.2204 8.8222 18.3757 19.3238 18.2118 10.5068-.1622 18.8861-8.5829 18.7194-18.805-.0434-2.6429-.6634-5.1423-1.7262-7.3999l-8.2439 4.8448c.283.8534.4428 1.7592.4584 2.7022.0851 5.1101-4.1037 9.3196-9.3588 9.4024-5.2499.0811-9.5759-3.9965-9.661-9.1067-.0816-5.1119 4.1054-9.3214 9.3588-9.4025z" fill="#000080"/><path d="m45.892 45.5098 5.9185-3.4778c-1.7766-1.9907-4.4076-3.2344-7.3304-3.1871-5.2534.0811-9.4404 4.2906-9.3588 9.4025.0851 5.1102 4.4111 9.1878 9.661 9.1067 5.2551-.0828 9.4439-4.2923 9.3588-9.4025-.0139-.9429-.1754-1.8487-.4585-2.7021l-6.0626 3.5623c-.7676.4512-1.7662.2298-2.2629-.5036l-.0903-.1352c-.6009-.8973-.3195-2.1056.6252-2.6615z" fill="#fff"/><path d="m99.2373 24.731c.3786.1944.8367.1809 1.1997-.0337l1.253-.7351c.189-.1116.302-.3144.293-.529-.002-.2163-.13-.4106-.326-.512l-5.7974-2.9725.6512-.3819c.1372-.0811.2414-.2163.2779-.3718.0382-.1538.0104-.3194-.0764-.4546l-.8163-1.2741c-.1788-.2772-.5522-.3634-.8405-.1961l-.6721.3955-.1407-6.3117c-.0052-.2113-.125-.4056-.316-.5087-.1911-.1014-.4255-.0997-.6131.0119l-1.2452.7317c-.3733.2197-.5974.6151-.5904 1.0392l.1511 6.6565-.33.1977-.1459-6.3117c-.0034-.2129-.1268-.4073-.3178-.512-.1893-.0997-.4255-.0964-.6148.0135l-1.2451.7317c-.3752.2214-.5974.6168-.5888 1.041l.1529 6.6564-.3335.196-.1459-6.3117c-.0017-.2129-.1233-.4072-.316-.5103-.1876-.1031-.4238-.0997-.6131.0118l-1.2434.7317c-.3734.2197-.5974.6168-.5887 1.041l.1302 5.6695c.0018.2113-.1094.409-.2917.5171l-4.8835 2.8694-2.0267 1.1931-1.8999 1.1153-8.1553 4.7925-8.1658 4.7993-8.1952 4.8144-5.9185 3.4778c-.9448.5576-1.2261 1.7642-.6252 2.6615l.0903.1352c.4966.7318 1.4952.9548 2.2628.5036l6.0627-3.5622 8.2439-4.8449 8.1588-4.7959 8.1814-4.8077 1.9051-1.117 2.0301-1.1931 4.88-2.8677c.1789-.1081.4064-.1149.5939-.0169l5.3819 2.7596c.3769.1943.8336.1825 1.2001-.0355l1.2521-.7351c.1875-.1098.3004-.3126.297-.5272-.007-.2163-.1338-.4107-.3265-.5104l-5.7987-2.9725.3195-.1875 6.1478 3.1516c.3786.196.8318.1825 1.2-.0338l1.2521-.7351c.1893-.1132.3022-.3143.2987-.5306-.0069-.213-.132-.409-.3282-.5087l-5.7969-2.9708.316-.1876 6.1478 3.1516z" fill="#00d4c6"/></g></svg>

<svg width="103" height="96" viewBox="0 0 103 96" fill="none" xmlns="http://www.w3.org/2000/svg">
<g clip-path="url(#clip0_565_4307)">
<path d="M43.9864 8.90834C58.2339 8.68527 70.8837 15.7304 78.2263 26.5118L80.253 25.3187C72.4884 13.8614 59.0658 6.36845 43.9499 6.60334C20.4339 6.96836 1.61379 25.8815 1.98891 48.7641C2.36576 71.6416 21.8007 89.9599 45.3132 89.5949C68.8258 89.2282 87.6511 70.3151 87.2742 47.4358C87.1614 40.5817 85.3275 34.1433 82.1997 28.4889L80.1696 29.682C83.0889 34.9967 84.8013 41.0413 84.9054 47.473C85.2615 69.0815 67.4816 86.9452 45.275 87.2882C23.0719 87.6363 4.71372 70.3354 4.35771 48.7286C4.00343 27.1168 21.7816 9.25307 43.9864 8.90834Z" fill="#000080"/>
<path d="M44.1749 20.3357C54.1138 20.1802 62.9412 24.9964 68.172 32.4183L76.3273 27.6258C69.3911 17.4849 57.4724 10.8724 44.0255 11.0819C23.012 11.4081 6.25331 28.2477 6.59196 48.6918C6.92887 69.1343 24.2329 85.445 45.2412 85.1154C66.2495 84.7876 83.0082 67.9497 82.673 47.5055C82.5758 41.4676 80.9833 35.7947 78.2654 30.7994L70.084 35.6071C71.9683 39.237 73.0902 43.3146 73.1614 47.6542C73.4132 62.9865 60.8468 75.6166 45.0866 75.8617C29.33 76.1067 16.3537 63.8754 16.0984 48.5431C15.8501 33.2109 28.4182 20.5824 44.1731 20.3357H44.1749Z" fill="#000080"/>
<path d="M44.3259 29.5894C50.7585 29.4897 56.4842 32.5163 60.0044 37.2175L68.1702 32.4183C62.9394 24.9964 54.112 20.1802 44.1731 20.3357C28.4182 20.5807 15.85 33.2092 16.0983 48.5431C16.3536 63.8754 29.3316 76.1067 45.0866 75.8617C60.845 75.6166 73.4131 62.9848 73.1613 47.6542C73.0901 43.3146 71.9682 39.2386 70.084 35.6071L61.9252 40.403C62.988 42.6606 63.6097 45.16 63.6514 47.8029C63.8181 58.0233 55.4405 66.4457 44.932 66.6079C34.4305 66.7718 25.7767 58.6165 25.6083 48.3961C25.4398 38.1723 33.8209 29.7534 44.3224 29.5894H44.3259Z" fill="white"/>
<path d="M44.4799 38.8449C47.4026 38.7993 50.0354 40.043 51.8103 42.032L60.0055 37.2175C56.4853 32.5163 50.7579 29.4897 44.327 29.5894C33.8255 29.7534 25.4444 38.1706 25.6128 48.3961C25.7796 58.6165 34.435 66.7718 44.9366 66.6079C55.4434 66.4457 63.8227 58.025 63.656 47.8029C63.6126 45.16 62.9926 42.6606 61.9298 40.403L53.6859 45.2478C53.9689 46.1012 54.1287 47.007 54.1443 47.95C54.2294 53.0601 50.0406 57.2696 44.7855 57.3524C39.5356 57.4335 35.2096 53.3559 35.1245 48.2457C35.0429 43.1338 39.2299 38.9243 44.4833 38.8432L44.4799 38.8449Z" fill="#000080"/>
<path d="M45.892 45.5098L51.8105 42.032C50.0339 40.0413 47.4029 38.7976 44.4801 38.8449C39.2267 38.926 35.0397 43.1355 35.1213 48.2474C35.2064 53.3576 39.5324 57.4352 44.7823 57.3541C50.0374 57.2713 54.2262 53.0618 54.1411 47.9516C54.1272 47.0087 53.9657 46.1029 53.6826 45.2495L47.62 48.8118C46.8524 49.263 45.8538 49.0416 45.3571 48.3082L45.2668 48.173C44.6659 47.2757 44.9473 46.0674 45.892 45.5115V45.5098Z" fill="white"/>
<path d="M99.2373 24.731C99.6159 24.9254 100.074 24.9119 100.437 24.6973L101.69 23.9622C101.879 23.8506 101.992 23.6478 101.983 23.4332C101.981 23.2169 101.853 23.0226 101.657 22.9212L95.8596 19.9487L96.5108 19.5668C96.648 19.4857 96.7522 19.3505 96.7887 19.195C96.8269 19.0412 96.7991 18.8756 96.7123 18.7404L95.896 17.4663C95.7172 17.1891 95.3438 17.1029 95.0555 17.2702L94.3834 17.6657L94.2427 11.354C94.2375 11.1427 94.1177 10.9484 93.9267 10.8453C93.7356 10.7439 93.5012 10.7456 93.3136 10.8572L92.0684 11.5889C91.6951 11.8086 91.471 12.204 91.478 12.6281L91.6291 19.2846L91.2991 19.4823L91.1532 13.1706C91.1498 12.9577 91.0264 12.7633 90.8354 12.6586C90.6461 12.5589 90.4099 12.5622 90.2206 12.6721L88.9755 13.4038C88.6003 13.6252 88.3781 14.0206 88.3867 14.4448L88.5396 21.1012L88.2061 21.2972L88.0602 14.9855C88.0585 14.7726 87.9369 14.5783 87.7442 14.4752C87.5566 14.3721 87.3204 14.3755 87.1311 14.487L85.8877 15.2187C85.5143 15.4384 85.2903 15.8355 85.299 16.2597L85.4292 21.9292C85.431 22.1405 85.3198 22.3382 85.1375 22.4463L80.254 25.3157L78.2273 26.5088L76.3274 27.6241L68.1721 32.4166L60.0063 37.2159L51.8111 42.0303L45.8926 45.5081C44.9478 46.0657 44.6665 47.2723 45.2674 48.1696L45.3577 48.3048C45.8543 49.0366 46.8529 49.2596 47.6205 48.8084L53.6832 45.2462L61.9271 40.4013L70.0859 35.6054L78.2673 30.7977L80.1724 29.6807L82.2025 28.4876L87.0825 25.6199C87.2614 25.5118 87.4889 25.505 87.6764 25.603L93.0583 28.3626C93.4352 28.5569 93.8919 28.5451 94.2584 28.3271L95.5105 27.592C95.698 27.4822 95.8109 27.2794 95.8075 27.0648C95.8005 26.8485 95.6737 26.6541 95.481 26.5544L89.6823 23.5819L90.0018 23.3944L96.1496 26.546C96.5282 26.742 96.9814 26.7285 97.3496 26.5122L98.6017 25.7771C98.791 25.6639 98.9039 25.4628 98.9004 25.2465C98.8935 25.0335 98.7684 24.8375 98.5722 24.7378L92.7753 21.767L93.0913 21.5794L99.2391 24.731H99.2373Z" fill="#00D4C6"/>
</g>
<defs>
<clipPath id="clip0_565_4307">
<rect width="100" height="83" fill="white" transform="translate(1.98438 6.59866)"/>
</clipPath>
</defs>
</svg>
